img/svg/maintenance-3.svg

<svg width="40" height="53" viewBox="0 0 40 53" fill="none" xmlns="http://www.w3.org/2000/svg">
<path d="M4.44438 0.0117188C1.99438 0.0117188 0 1.95521 0 4.34518V47.6784C0 50.0683 1.99448 52.0117 4.44458 52.0117H35.5556C38.0056 52.0117 40 50.0682 40 47.6782V11.9282C40 11.6405 39.8828 11.3657 39.6745 11.1626L28.5632 0.329101C28.3549 0.125977 28.0729 0.0117188 27.7777 0.0117188H4.44438ZM4.44459 2.17845H26.6667V8.67845C26.6667 11.0683 28.6611 13.0117 31.1112 13.0117H37.7779V47.6782C37.7779 48.8726 36.7817 49.845 35.5556 49.845H4.44458C3.21843 49.845 2.22229 48.8726 2.22229 47.6782V4.34518C2.22229 3.15081 3.21854 2.17845 4.44458 2.17845H4.44459ZM28.8888 3.71042L36.2065 10.8452H31.111C29.8849 10.8452 28.8888 9.87283 28.8888 8.67845V3.71042ZM7.77791 10.845C7.16375 10.845 6.66667 11.3294 6.66667 11.9282C6.66667 12.5271 7.16375 13.0117 7.77791 13.0117H21.1112C21.7254 13.0117 22.2223 12.5271 22.2223 11.9282C22.2223 11.3294 21.7254 10.845 21.1112 10.845H7.77791ZM7.77791 17.345C7.16375 17.3451 6.66667 17.8295 6.66667 18.4283C6.66667 19.0271 7.16375 19.5117 7.77791 19.5117H32.2223C32.8365 19.5117 33.3335 19.0271 33.3335 18.4283C33.3335 17.8294 32.8365 17.345 32.2223 17.345H7.77791ZM7.77791 23.8452C7.16375 23.8452 6.66667 24.3296 6.66667 24.9284C6.66667 25.5273 7.16375 26.0119 7.77791 26.0119H32.2223C32.8365 26.0119 33.3335 25.5273 33.3335 24.9284C33.3334 24.3296 32.8363 23.8452 32.2221 23.8452H7.77791ZM16.6667 30.3452C16.0525 30.3452 15.5554 30.8296 15.5554 31.4284C15.5554 32.0273 16.0525 32.5119 16.6667 32.5119H32.2221C32.8363 32.5119 33.3333 32.0273 33.3333 31.4284C33.3333 30.8296 32.8363 30.3452 32.2221 30.3452H16.6667ZM10 34.6783C8.68927 34.6783 6.66667 36.5393 6.66667 39.0117C6.66667 40.1078 7.28938 41.4618 8.17261 42.6499C7.82105 42.9927 7.46297 43.3039 7.11141 43.562C6.62099 43.9206 6.52105 44.5997 6.88782 45.0779C7.10698 45.3625 7.44136 45.5117 7.77771 45.5117C8.0099 45.5117 8.24432 45.4408 8.44401 45.2949C8.82818 45.0146 9.24047 44.6623 9.65495 44.2602C10.5252 45.0157 11.4495 45.5117 12.2221 45.5117C13.7239 45.5117 14.6158 43.8455 15.3906 42.3125C15.9028 43.9672 16.3977 45.5117 17.7779 45.5117C21.1891 45.5405 18.8419 45.5091 24.1455 45.5215C24.4254 45.3816 25.0899 45.3463 25.0974 44.564C25.1064 43.6181 24.5485 43.5087 24.2471 43.3404C21.8403 43.2833 20.27 43.2684 18.0446 43.1948C17.8515 42.7685 17.6324 42.0555 17.5 41.6228C17.0486 40.1639 16.6948 39.0117 15.5554 39.0117C14.581 39.0117 14.1427 39.8803 13.4786 41.1943C13.1531 41.8375 12.4783 43.177 12.2331 43.3452C11.9921 43.3208 11.5798 43.0468 11.1263 42.6343C12.3504 41.0928 13.3333 39.3079 13.3333 37.9283C13.3333 35.5605 11.2891 34.6783 10 34.6783V34.6783ZM10 36.8452C10.1845 36.8452 11.1112 36.8969 11.1112 37.9285C11.1112 38.6192 10.5122 39.7852 9.66146 40.9331C9.2101 40.2624 8.88875 39.5661 8.88875 39.0117C8.88875 37.6904 9.88281 36.9171 10 36.8452Z" fill="white"/>
</svg>

<svg width="40" height="53" viewBox="0 0 40 53" fill="none" xmlns="http://www.w3.org/2000/svg"><path d="M4.444.012C1.994.012 0 1.955 0 4.345v43.333c0 2.39 1.994 4.334 4.445 4.334h31.11c2.45 0 4.445-1.944 4.445-4.334v-35.75c0-.288-.117-.562-.325-.765L28.563.329a1.125 1.125 0 00-.785-.317H4.444zm0 2.166h22.223v6.5c0 2.39 1.994 4.334 4.444 4.334h6.667v34.666c0 1.195-.996 2.167-2.222 2.167H4.445c-1.227 0-2.223-.972-2.223-2.167V4.345c0-1.194.997-2.167 2.223-2.167zM28.89 3.71l7.317 7.135h-5.095c-1.226 0-2.222-.972-2.222-2.167V3.71zM7.778 10.845c-.614 0-1.111.484-1.111 1.083 0 .6.497 1.084 1.11 1.084h13.334c.614 0 1.111-.485 1.111-1.084 0-.599-.497-1.083-1.11-1.083H7.777zm0 6.5c-.614 0-1.111.485-1.111 1.083 0 .6.497 1.084 1.11 1.084h24.445c.614 0 1.111-.485 1.111-1.084 0-.599-.496-1.083-1.11-1.083H7.777zm0 6.5c-.614 0-1.111.485-1.111 1.083 0 .6.497 1.084 1.11 1.084h24.445c.614 0 1.111-.485 1.111-1.084 0-.598-.497-1.083-1.11-1.083H7.777zm8.889 6.5c-.615 0-1.112.485-1.112 1.083 0 .6.497 1.084 1.112 1.084h15.555c.614 0 1.111-.485 1.111-1.084 0-.598-.497-1.083-1.11-1.083H16.666zM10 34.678c-1.31 0-3.333 1.861-3.333 4.334 0 1.096.622 2.45 1.506 3.638-.352.343-.71.654-1.062.912a1.067 1.067 0 00-.223 1.516 1.127 1.127 0 001.556.217c.384-.28.796-.633 1.21-1.035.871.756 1.796 1.252 2.568 1.252 1.502 0 2.394-1.666 3.169-3.2.512 1.655 1.007 3.2 2.387 3.2 3.411.029 1.064-.003 6.367.01.28-.14.945-.176.952-.958.01-.946-.549-1.055-.85-1.224-2.407-.057-3.977-.072-6.202-.145-.194-.426-.413-1.14-.545-1.572-.451-1.46-.805-2.611-1.945-2.611-.974 0-1.412.868-2.076 2.182-.326.643-1 1.983-1.246 2.151-.24-.024-.653-.298-1.107-.71 1.224-1.542 2.207-3.327 2.207-4.707 0-2.367-2.044-3.25-3.333-3.25zm0 2.167c.184 0 1.111.052 1.111 1.084 0 .69-.599 1.856-1.45 3.004-.45-.67-.772-1.367-.772-1.921 0-1.322.994-2.095 1.111-2.167z" fill="#fff"/></svg>
